src/assets/beard.svg

<svg width="31" height="33" viewBox="0 0 31 33" fill="none" xmlns="http://www.w3.org/2000/svg">
<path d="M29.7721 0.995828C29.7721 0.995828 28.4642 4.73669 27.4267 7.15776C26.6502 8.71803 25.3303 9.94071 23.7152 10.5957C18.7973 6.85602 17.2908 7.62563 16.242 8.24298C15.7368 8.54048 15.5364 8.56408 15.4568 8.94984C15.3884 8.56157 15.1889 8.53017 14.696 8.2167C13.6688 7.56406 12.1893 6.74368 7.14721 10.314C5.55536 9.60453 4.27771 8.3377 3.55471 6.75194C2.59614 4.29794 1.42011 0.513844 1.42011 0.513844C1.42011 0.513844 0.723834 7.28497 0.694101 9.03397C0.664368 10.783 1.41942 25.209 4.11479 27.5865C5.5606 29.007 7.27497 30.1252 9.15778 30.8758C11.0406 31.6264 13.0541 31.9943 15.0807 31.9581C17.1003 32.0635 19.1207 31.7642 21.0232 31.0778C22.9256 30.3915 24.6716 29.3319 26.1588 27.9612C28.9374 25.6768 30.1784 11.2837 30.2081 9.5357C30.2378 7.7877 29.7721 0.995828 29.7721 0.995828ZM17.7986 14.3582L12.9326 14.2755C10.8726 14.2405 10.3222 14.018 9.74688 11.2014C11.6007 10.7646 13.5111 10.6176 15.4099 10.7656L15.4249 10.7658L15.4399 10.7661C17.3427 10.6831 19.2469 10.8949 21.0849 11.3942C20.4162 14.1876 19.4796 14.3868 17.7986 14.3582Z" fill="#707070" fill-opacity="0.5"/>
</svg>

<?xml version="1.0" encoding="utf-8"?>
<!-- Generator: Adobe Illustrator 23.0.0, SVG Export Plug-In . SVG Version: 6.00 Build 0)  -->
<svg version="1.1" id="Camada_1" xmlns="http://www.w3.org/2000/svg" xmlns:xlink="http://www.w3.org/1999/xlink" x="0px" y="0px"
	 viewBox="0 0 31 33" style="enable-background:new 0 0 31 33;" xml:space="preserve">
<style type="text/css">
	.st0{fill:#313131;}
</style>
<path class="st0" d="M29.8,1c0,0-1.3,3.7-2.3,6.2c-0.8,1.6-2.1,2.8-3.7,3.4c-4.9-3.7-6.4-3-7.5-2.4c-0.5,0.3-0.7,0.3-0.8,0.7
	c-0.1-0.4-0.3-0.4-0.8-0.7c-1-0.7-2.5-1.5-7.5,2.1c-1.6-0.7-2.9-2-3.6-3.6c-1-2.5-2.1-6.2-2.1-6.2S0.7,7.3,0.7,9s0.7,16.2,3.4,18.6
	c1.4,1.4,3.2,2.5,5,3.3C11,31.7,13,32,15,32c2,0.1,4-0.2,5.9-0.9c1.9-0.7,3.6-1.7,5.1-3.1c2.8-2.3,4-16.7,4-18.4
	C30.2,7.8,29.8,1,29.8,1z M17.8,14.4l-4.9-0.1c-2.1,0-2.6-0.3-3.2-3.1c1.9-0.4,3.8-0.6,5.7-0.4l0,0l0,0c1.9-0.1,3.8,0.1,5.6,0.6
	C20.4,14.2,19.5,14.4,17.8,14.4z"/>
</svg>
